models/reel-top.svg

<?xml version="1.0" encoding="UTF-8" standalone="no"?>
<!-- Created with Inkscape (http://www.inkscape.org/) -->

<svg
   xmlns:dc="http://purl.org/dc/elements/1.1/"
   xmlns:cc="http://creativecommons.org/ns#"
   xmlns:rdf="http://www.w3.org/1999/02/22-rdf-syntax-ns#"
   xmlns:svg="http://www.w3.org/2000/svg"
   xmlns="http://www.w3.org/2000/svg"
   xmlns:sodipodi="http://sodipodi.sourceforge.net/DTD/sodipodi-0.dtd"
   xmlns:inkscape="http://www.inkscape.org/namespaces/inkscape"
   width="354.33069"
   height="354.33069"
   id="svg2"
   version="1.1"
   inkscape:version="0.48.3.1 r9886"
   sodipodi:docname="reel-top.svg">
  <defs
     id="defs4" />
  <sodipodi:namedview
     id="base"
     pagecolor="#ffffff"
     bordercolor="#666666"
     borderopacity="1.0"
     inkscape:pageopacity="0.0"
     inkscape:pageshadow="2"
     inkscape:zoom="1.4222922"
     inkscape:cx="163.9998"
     inkscape:cy="175.5688"
     inkscape:document-units="px"
     inkscape:current-layer="layer1"
     showgrid="true"
     units="mm"
     inkscape:window-width="941"
     inkscape:window-height="666"
     inkscape:window-x="368"
     inkscape:window-y="47"
     inkscape:window-maximized="0">
    <inkscape:grid
       type="xygrid"
       id="grid2985"
       empspacing="5"
       visible="true"
       enabled="true"
       snapvisiblegridlinesonly="true"
       spacingx="1mm"
       spacingy="1mm"
       units="mm" />
  </sodipodi:namedview>
  <metadata
     id="metadata7">
    <rdf:RDF>
      <cc:Work
         rdf:about="">
        <dc:format>image/svg+xml</dc:format>
        <dc:type
           rdf:resource="http://purl.org/dc/dcmitype/StillImage" />
        <dc:title />
      </cc:Work>
    </rdf:RDF>
  </metadata>
  <g
     inkscape:label="Layer 1"
     inkscape:groupmode="layer"
     id="layer1"
     transform="translate(0,-698.03149)">
    <path
       style="fill:#ffffff;fill-opacity:1;stroke:#000000;stroke-width:2;stroke-miterlimit:4;stroke-opacity:1;stroke-dasharray:none"
       d="M 177.15625,0 C 81.677177,0 3.8654163,75.524329 0.15625,170.09375 l 28.1875,0 0,14.15625 -28.1875,0 c 3.7249966,94.55634 81.531386,170.09375 177,170.09375 97.84573,0 177.1875,-79.34177 177.1875,-177.1875 C 354.34375,79.310524 275.00198,0 177.15625,0 z m -21.25,37.03125 c 3.3e-4,39.624747 -1.1e-4,61.532956 -7.4e-4,101.15771 l -17.71653,17.71653 -101.15773,7.6e-4 c 9.219218,-61.24432 57.63068,-109.65578 118.875,-118.875 z m 42.53125,0 c 61.24432,9.21922 109.62453,57.63068 118.84375,118.875 l -101.13952,-7.6e-4 -17.71653,-17.71653 z m -23.8125,17.125 5.09375,0 0,111.65625 c 5.20173,1.17126 9.09375,5.78824 9.09375,11.34375 0,5.55551 -3.89202,10.20374 -9.09375,11.375 l 0,111.65625 -5.09375,0 0,-111.625 c -5.22027,-1.15752 -9.125,-5.83759 -9.125,-11.40625 0,-5.56603 3.90844,-10.18347 9.125,-11.34375 z M 37.03125,198.4375 l 101.15773,-0.0123 17.71653,17.71653 7.4e-4,101.13956 C 94.66193,308.06205 46.250468,259.68182 37.03125,198.4375 z m 280.25,0 c -9.21922,61.24432 -57.59943,109.62455 -118.84375,118.84375 l -0.0123,-101.13954 17.71653,-17.71653 z"
       transform="translate(0,698.03149)"
       id="path3004"
       inkscape:connector-curvature="0"
       sodipodi:nodetypes="sccccssscccccccccccccsccccscccccccccccc" />
  </g>
</svg>

<?xml version="1.0" encoding="UTF-8" standalone="no"?>
<!-- Created with Inkscape (http://www.inkscape.org/) -->

<svg
   xmlns:dc="http://purl.org/dc/elements/1.1/"
   xmlns:cc="http://creativecommons.org/ns#"
   xmlns:rdf="http://www.w3.org/1999/02/22-rdf-syntax-ns#"
   xmlns:svg="http://www.w3.org/2000/svg"
   xmlns="http://www.w3.org/2000/svg"
   xmlns:sodipodi="http://sodipodi.sourceforge.net/DTD/sodipodi-0.dtd"
   xmlns:inkscape="http://www.inkscape.org/namespaces/inkscape"
   width="354.33069"
   height="354.33069"
   id="svg2"
   version="1.1"
   inkscape:version="0.48.3.1 r9886"
   sodipodi:docname="reel-top.svg">
  <defs
     id="defs4" />
  <sodipodi:namedview
     id="base"
     pagecolor="#ffffff"
     bordercolor="#666666"
     borderopacity="1.0"
     inkscape:pageopacity="0.0"
     inkscape:pageshadow="2"
     inkscape:zoom="1.3435675"
     inkscape:cx="175.233"
     inkscape:cy="232.34342"
     inkscape:document-units="px"
     inkscape:current-layer="layer1"
     showgrid="true"
     units="mm"
     inkscape:window-width="941"
     inkscape:window-height="666"
     inkscape:window-x="368"
     inkscape:window-y="47"
     inkscape:window-maximized="0">
    <inkscape:grid
       type="xygrid"
       id="grid2985"
       empspacing="5"
       visible="true"
       enabled="true"
       snapvisiblegridlinesonly="true"
       spacingx="1mm"
       spacingy="1mm"
       units="mm" />
  </sodipodi:namedview>
  <metadata
     id="metadata7">
    <rdf:RDF>
      <cc:Work
         rdf:about="">
        <dc:format>image/svg+xml</dc:format>
        <dc:type
           rdf:resource="http://purl.org/dc/dcmitype/StillImage" />
        <dc:title />
      </cc:Work>
    </rdf:RDF>
  </metadata>
  <g
     inkscape:label="Layer 1"
     inkscape:groupmode="layer"
     id="layer1"
     transform="translate(0,-698.03149)">
    <path
       style="fill:#ffffff;fill-opacity:1;stroke:#000000;stroke-width:2;stroke-miterlimit:4;stroke-opacity:1;stroke-dasharray:none"
       d="M 177.15625 0 C 81.677177 0 3.8654163 75.524329 0.15625 170.09375 L 28.34375 170.09375 L 28.34375 184.25 L 0.15625 184.25 C 3.8812466 278.80634 81.687636 354.34375 177.15625 354.34375 C 275.00198 354.34375 354.34375 275.00198 354.34375 177.15625 C 354.34375 79.310524 275.00198 0 177.15625 0 z M 155.90625 37.03125 L 155.90625 109.59375 C 134.06156 116.55189 116.85976 133.94592 110.15625 155.90625 L 37.03125 155.90625 C 46.250468 94.66193 94.66193 46.25047 155.90625 37.03125 z M 198.4375 37.03125 C 259.68182 46.25047 308.06203 94.66193 317.28125 155.90625 L 244.1875 155.90625 C 237.47832 133.94761 220.28613 116.5526 198.4375 109.59375 L 198.4375 37.03125 z M 174.625 54.15625 L 179.71875 54.15625 L 179.71875 165.8125 C 184.92048 166.98376 188.8125 171.60074 188.8125 177.15625 C 188.8125 182.71176 184.92048 187.35999 179.71875 188.53125 L 179.71875 300.1875 L 174.625 300.1875 L 174.625 188.5625 C 169.40473 187.40498 165.5 182.72491 165.5 177.15625 C 165.5 171.59022 169.40844 166.97278 174.625 165.8125 L 174.625 54.15625 z M 37.03125 198.4375 L 110.65625 198.4375 C 117.68404 219.65344 134.58165 236.36924 155.90625 243.15625 L 155.90625 317.28125 C 94.66193 308.06205 46.250468 259.68182 37.03125 198.4375 z M 243.6875 198.4375 L 317.28125 198.4375 C 308.06203 259.68182 259.68182 308.06205 198.4375 317.28125 L 198.4375 243.15625 C 219.76619 236.36846 236.65406 219.65217 243.6875 198.4375 z "
       transform="translate(0,698.03149)"
       id="path3004" />
  </g>
</svg>
